packages/foundations/assets/icons/functional/images/communication/speech_bubble_question_mark_28.svg

<svg width="28" height="28" viewBox="0 0 28 28" fill="none" xmlns="http://www.w3.org/2000/svg">
<g clip-path="url(#clip0_185_501)">
<path fill-rule="evenodd" clip-rule="evenodd" d="M23.625 2.1875C24.9922 2.1875 26.25 3.19918 26.25 4.8125V17.9375C26.25 19.3047 25.2676 20.5625 23.625 20.5625H8.61328C8.36719 20.5625 8.18931 20.6025 7.98438 20.8085L3.25391 25.5665C3.09032 25.7309 2.84375 25.8125 2.625 25.8125C2.21484 25.8125 1.75 25.485 1.75 24.9375V4.8125C1.75 3.44531 2.8471 2.1875 4.375 2.1875H23.625ZM23.625 3.9375H4.375C3.96484 3.9375 3.5 4.15625 3.5 4.8125V22.8321L6.72656 19.5781C7.25769 19.0425 7.81291 18.8125 8.61328 18.8125H23.625C24.0352 18.8125 24.5 18.5665 24.5 17.9375V4.8125C24.5 4.4023 24.1742 3.9375 23.625 3.9375ZM13.3438 14C13.9306 14 14.4375 14.4862 14.4375 15.0802C14.4375 15.7014 13.9306 16.1875 13.3438 16.1875C12.7569 16.1875 12.25 15.7014 12.25 15.0802C12.25 14.4862 12.7569 14 13.3438 14ZM13.7553 6.125C15.3414 6.125 16.4897 7.08199 16.4897 8.55855C16.4897 11.1015 14.1928 10.9375 14.1928 12.1132C14.1928 12.5233 13.8921 12.9608 13.3452 12.9608C12.8803 12.9608 12.4976 12.5781 12.4976 12.1132C12.4976 9.78897 14.7945 10.0898 14.7945 8.55855C14.7945 8.01167 14.3022 7.82022 13.8101 7.82022C13.1265 7.82022 12.5796 8.14835 12.1421 8.12105C11.7046 8.09375 11.3491 7.73824 11.3765 7.27335C11.3765 6.39835 12.6616 6.125 13.7553 6.125Z" fill="#1A1C1F"/>
</g>
<defs>
<clipPath id="clip0_185_501">
<rect width="28" height="28" fill="white"/>
</clipPath>
</defs>
</svg>

<svg xmlns="http://www.w3.org/2000/svg" width="28" height="28" fill="none"><g clip-path="url(#a)"><path fill="#1A1C1F" fill-rule="evenodd" d="M23.625 2.188c1.367 0 2.625 1.011 2.625 2.625v13.125c0 1.367-.982 2.625-2.625 2.625H8.613c-.246 0-.424.04-.629.245l-4.73 4.759a.9.9 0 0 1-.629.245c-.41 0-.875-.327-.875-.875V4.814c0-1.368 1.097-2.625 2.625-2.625zm0 1.75H4.375c-.41 0-.875.218-.875.874v18.02l3.227-3.254c.53-.535 1.086-.765 1.886-.765h15.012c.41 0 .875-.246.875-.875V4.813c0-.41-.326-.875-.875-.875M13.344 14c.587 0 1.094.486 1.094 1.08 0 .621-.507 1.108-1.094 1.108a1.105 1.105 0 0 1-1.094-1.108c0-.594.507-1.08 1.094-1.08m.411-7.875c1.586 0 2.735.957 2.735 2.434 0 2.543-2.297 2.379-2.297 3.554 0 .41-.3.848-.848.848a.85.85 0 0 1-.847-.848c0-2.324 2.297-2.023 2.297-3.554 0-.547-.493-.739-.985-.739-.684 0-1.23.328-1.668.301a.8.8 0 0 1-.765-.848c0-.875 1.285-1.148 2.378-1.148" clip-rule="evenodd"/></g><defs><clipPath id="a"><path fill="#fff" d="M0 0h28v28H0z"/></clipPath></defs></svg>
